symbols/web/nest_remote_comfort_sensor/materialsymbolsoutlined/nest_remote_comfort_sensor_wght500gradN25_20px.svg

<svg xmlns="http://www.w3.org/2000/svg" height="20" width="20"><path d="M10 17.75q-1.417 0-2.427-1.01-1.011-1.011-1.011-2.428 0-1.416 1.011-2.427 1.01-1.01 2.427-1.01t2.427 1.01q1.011 1.011 1.011 2.427 0 1.417-1.011 2.428-1.01 1.01-2.427 1.01Zm0-1.875q.646 0 1.104-.458.458-.459.458-1.105 0-.645-.458-1.104-.458-.458-1.104-.458-.646 0-1.104.458-.458.459-.458 1.104 0 .646.458 1.105.458.458 1.104.458ZM2.458 7.229l-1.333-1.25q1.75-1.708 3.979-2.687 2.229-.98 4.896-.98t4.896.969q2.229.969 3.979 2.698l-1.333 1.25q-1.5-1.437-3.407-2.271-1.906-.833-4.135-.833t-4.135.833q-1.907.834-3.407 2.271Zm11.959 2.938q-.855-.792-1.969-1.282-1.115-.489-2.448-.489t-2.438.489q-1.104.49-1.979 1.282l-1.312-1.25q1.083-1.063 2.552-1.688T10 6.604q1.708 0 3.167.625 1.458.625 2.562 1.688Z"/></svg>

<svg xmlns="http://www.w3.org/2000/svg" height="20" width="20"><path d="M10 17.75Q8.583 17.75 7.573 16.74Q6.562 15.729 6.562 14.312Q6.562 12.896 7.573 11.885Q8.583 10.875 10 10.875Q11.417 10.875 12.427 11.885Q13.438 12.896 13.438 14.312Q13.438 15.729 12.427 16.74Q11.417 17.75 10 17.75ZM10 15.875Q10.646 15.875 11.104 15.417Q11.562 14.958 11.562 14.312Q11.562 13.667 11.104 13.208Q10.646 12.75 10 12.75Q9.354 12.75 8.896 13.208Q8.438 13.667 8.438 14.312Q8.438 14.958 8.896 15.417Q9.354 15.875 10 15.875ZM2.458 7.229 1.125 5.979Q2.875 4.271 5.104 3.292Q7.333 2.312 10 2.312Q12.667 2.312 14.896 3.281Q17.125 4.25 18.875 5.979L17.542 7.229Q16.042 5.792 14.135 4.958Q12.229 4.125 10 4.125Q7.771 4.125 5.865 4.958Q3.958 5.792 2.458 7.229ZM14.417 10.167Q13.562 9.375 12.448 8.885Q11.333 8.396 10 8.396Q8.667 8.396 7.562 8.885Q6.458 9.375 5.583 10.167L4.271 8.917Q5.354 7.854 6.823 7.229Q8.292 6.604 10 6.604Q11.708 6.604 13.167 7.229Q14.625 7.854 15.729 8.917Z"/></svg>
